src/assets/logos/nextjs2.svg

<svg width="100" height="100" viewBox="0 0 100 100" fill="none" xmlns="http://www.w3.org/2000/svg">
<path d="M50 100C77.6142 100 100 77.6142 100 50C100 22.3858 77.6142 0 50 0C22.3858 0 0 22.3858 0 50C0 77.6142 22.3858 100 50 100Z" fill="black"/>
<path d="M83.06 87.5114L38.4122 30H30V69.9834H36.7298V38.5464L77.7773 91.5806C79.6294 90.3409 81.394 88.9808 83.06 87.5114Z" fill="url(#paint0_linear_121_1511)"/>
<path d="M70.5558 30H63.8892V70H70.5558V30Z" fill="url(#paint1_linear_121_1511)"/>
<defs>
<linearGradient id="paint0_linear_121_1511" x1="60.5555" y1="64.7223" x2="80.2778" y2="89.1666" gradientUnits="userSpaceOnUse">
<stop stop-color="white"/>
<stop offset="1" stop-color="white" stop-opacity="0"/>
</linearGradient>
<linearGradient id="paint1_linear_121_1511" x1="67.2225" y1="30" x2="67.1109" y2="59.3751" gradientUnits="userSpaceOnUse">
<stop stop-color="white"/>
<stop offset="1" stop-color="white" stop-opacity="0"/>
</linearGradient>
</defs>
</svg>

<svg width="100" height="100" fill="none" xmlns="http://www.w3.org/2000/svg"><path d="M50 100c27.614 0 50-22.386 50-50S77.614 0 50 0 0 22.386 0 50s22.386 50 50 50z" fill="#000"/><path d="M83.06 87.511 38.412 30H30v39.983h6.73V38.546l41.047 53.035a50.207 50.207 0 0 0 5.283-4.07z" fill="url(#a)"/><path d="M70.556 30h-6.667v40h6.667V30z" fill="url(#b)"/><defs><linearGradient id="a" x1="60.556" y1="64.722" x2="80.278" y2="89.167" gradientUnits="userSpaceOnUse"><stop stop-color="#fff"/><stop offset="1" stop-color="#fff" stop-opacity="0"/></linearGradient><linearGradient id="b" x1="67.222" y1="30" x2="67.111" y2="59.375" gradientUnits="userSpaceOnUse"><stop stop-color="#fff"/><stop offset="1" stop-color="#fff" stop-opacity="0"/></linearGradient></defs></svg>
